X: 52
M: 6/8
L: 1/8
K: D
a2b |\
agf efg | fed ABc | def gaf | e3 a2b |\
agf efg | fed Adc | def edc | d3 :|
|: D2G |\

